X:1
T: Harrison's Celebrated Reel
C:
R:Reel
Q: 232
K:A
M:4/4
L:1/8
|:AB|cA FA E2 eg|ae fa ed cB|cA FA E2 AB|cA Bc A2 AB|
cA FA E2 eg|ae fa ed cB|cA FA E2 AB|cA Bc A2:|
|:E2|Ac eg a2 fa|g2 fa ec dB|Ac eg af ed|cA Bc A2 E2|
Ac eg a2 fa|g2 fa fe cB|Ac eg af ed|cA Bc A2:|
